X:2255
L:1/16
M:2/4
K:C
"G7" b2b2 a2a2 |"C" g2g2 Gceg |"G7" f2f2 FBdf |"C" e2e2 Gceg |"G7" b2b2 a2a2 |"C" g2g2 Gceg | 
"G7" f2f2 GBed |"C" c2c2 c2 z2 ::"G7" Bcde fgab |"C" c'2e2 !>!g4 |"G7" D4 F4 |"C" E2EE E2E2 | 
"G7" Bcde fgab |"C" c'2e2 !>!g4 |"G7" gagf efed |"C" c2c2 c2 z2 :|[K:F]"F" !>!f4 fAcf | 
 !>!a4 acfa | d'2c'2 a2f2 |"C7" ebeb !>!d4 | !>!e4 eceg | !>!b4 begb | e'2d'2 c'2e2 | 
"F" fafa c2A2 | !>!f4 fAcf | !>!a4 acfa | d'2c'2 a2f2 |"Bb" e2d2 !>!b4 | dbdb d2b2 |"F" caca c2a2 | 
"C7" BgBg e2de |"F" f2f2 f2cc |:"C7" cBec g2c'2 |"F" fcfa c'2fa |"C7" gceg c'2eg |"F" fcfa c'2cc | 
"C7" cBec g2c'2 |"F" fcfa c'2fa |"C7" gceg c'2d'e |1"F" f2f2 f2cc :|2"F" f2f2 f2 z2 |]

